X:1
T:Althea
C:John Playford, 1665
L:1/8
Q:3/8=120
M:6/8
I:linebreak $
K:Bb
V:1 treble 
V:1
|:"^A" d/e/ |"Bb" f2 f"F" f2 f |"Bb" f3 d>ef |"Eb" g2 g"F7" f2 e |"Bb" d3- d2 d |"F" c3 F2 d | %6
"Cm" c3 G2 A/B/ |"Eb" c B2"F7" B2 A |"Bb" B3- B2 ::"^B" B |"F" c3"Bb" d3 |$"Gm" Bcd"Cm" e2 G | %12
"Cm" cdc c2 B |"F" c3- c2 f |"F" f3 f c2 |"Gm" d3 d G2 |"Cm" c B2"F7" B2 A |"Bb" B3- B2 :| %18
